Newaita-dark/actions/24/insert-text.svg

<svg height="24" viewBox="0 0 24 24" width="24" xmlns="http://www.w3.org/2000/svg"><g fill="#e0e0e0"><path d="m6.945312 3.164062c-2.199218 0-3.96875 1.328126-3.96875 2.976563v8.929687h1.984376v-3.96875h3.96875v3.96875h1.984374v-8.929687c0-1.648437-1.769531-2.976563-3.96875-2.976563zm0 1.984376c1.101563 0 1.984376.441406 1.984376.992187v2.976563h-3.96875v-2.976563c0-.550781.886718-.992187 1.984374-.992187zm0 0"/><path d="m14.386719 16.558594h5.953125c.277344 0 .5.222656.5.496094v.992187c0 .277344-.222656.496094-.5.496094h-5.953125c-.273438 0-.496094-.21875-.496094-.496094v-.992187c0-.273438.222656-.496094.496094-.496094zm0 0"/><path d="m18.355469 14.574219v5.957031c0 .273438-.21875.496094-.496094.496094h-.992187c-.273438 0-.496094-.222656-.496094-.496094v-5.957031c0-.273438.222656-.496094.496094-.496094h.992187c.277344 0 .496094.222656.496094.496094zm0 0"/></g></svg>

<svg xmlns="http://www.w3.org/2000/svg" xmlns:xlink="http://www.w3.org/1999/xlink" width="24px" height="24px" viewBox="0 0 24 24" version="1.1">
<g id="surface1">
     <defs>
  <style id="current-color-scheme" type="text/css">
   .ColorScheme-Text { color:#eeeeee; } .ColorScheme-Highlight { color:#424242; }
  </style>
 </defs>
<path style="fill:currentColor" class="ColorScheme-Text" d="M 6.945312 3.164062 C 4.746094 3.164062 2.976562 4.492188 2.976562 6.140625 L 2.976562 15.070312 L 4.960938 15.070312 L 4.960938 11.101562 L 8.929688 11.101562 L 8.929688 15.070312 L 10.914062 15.070312 L 10.914062 6.140625 C 10.914062 4.492188 9.144531 3.164062 6.945312 3.164062 Z M 6.945312 5.148438 C 8.046875 5.148438 8.929688 5.589844 8.929688 6.140625 L 8.929688 9.117188 L 4.960938 9.117188 L 4.960938 6.140625 C 4.960938 5.589844 5.847656 5.148438 6.945312 5.148438 Z M 6.945312 5.148438 "/>
     <defs>
  <style id="current-color-scheme" type="text/css">
   .ColorScheme-Text { color:#eeeeee; } .ColorScheme-Highlight { color:#424242; }
  </style>
 </defs>
<path style="fill:currentColor" class="ColorScheme-Text" d="M 14.386719 16.558594 L 20.339844 16.558594 C 20.617188 16.558594 20.839844 16.78125 20.839844 17.054688 L 20.839844 18.046875 C 20.839844 18.324219 20.617188 18.542969 20.339844 18.542969 L 14.386719 18.542969 C 14.113281 18.542969 13.890625 18.324219 13.890625 18.046875 L 13.890625 17.054688 C 13.890625 16.78125 14.113281 16.558594 14.386719 16.558594 Z M 14.386719 16.558594 "/>
     <defs>
  <style id="current-color-scheme" type="text/css">
   .ColorScheme-Text { color:#eeeeee; } .ColorScheme-Highlight { color:#424242; }
  </style>
 </defs>
<path style="fill:currentColor" class="ColorScheme-Text" d="M 18.355469 14.574219 L 18.355469 20.53125 C 18.355469 20.804688 18.136719 21.027344 17.859375 21.027344 L 16.867188 21.027344 C 16.59375 21.027344 16.371094 20.804688 16.371094 20.53125 L 16.371094 14.574219 C 16.371094 14.300781 16.59375 14.078125 16.867188 14.078125 L 17.859375 14.078125 C 18.136719 14.078125 18.355469 14.300781 18.355469 14.574219 Z M 18.355469 14.574219 "/>
</g>
</svg>
